!!!OTL: Die verunglueckte Muellerstochter
!!!OTL-incipit:Feinster Mueller, tu nachsehen,
!!!ARE: Europa, Mitteleuropa, Deutschland (BRD), Nord - Bayern, Unter - Franken
!!!YOR: 5, S. 193
!!    ????
!!!SCT: Q0106C
!!!TXL: @@DE
!!!YEM: Copyright 1995, estate of Helmut Schaffrath.
**kern	**text
*ICvox	*
*M3/4	*
*k[f#]	*
*G:	*
=1	=1
!LO:TX:a:t=Eine breite, getragene Melodie sangen die Unterfranken:	!
!LO:TX:a:t=127	!
{2g	Fein-
4a	-ster
=2	=2
2.b	Mül-
=3	=3
2.b	-ler,
=4	=4
2dd	tu
4dd	nach-
=5	=5
(2ee	-se-
4dd)	-hen,
=6	=6
2.dd}	.
=7	=7
{2g	was
4a	in
=8	=8
2.b	dei-
=9	=9
2.b	-ner
=10	=10
(2ee	Mühl'
4dd)	.
=11	=11
2dd	ist
4dd	ge-
=12	=12
2.dd	-sche-
=13	=13
2.b}	-hen;
=14	=14
{2g	denn
4dd	das
=15	=15
(2.dd	Rad,
=16	=16
2.b)	.
=17	=17
2.dd	das
=18	=18
(2.dd	blieb
=19	=19
2.b)	.
=20	=20
(2dd	frei-
4gg)	-wil-
=21	=21
2.ee	-lig
=22	=22
2.ee	.
=23	=23
(2ee	ste-
4dd)	.
=24	=24
2.dd}	-hen.
=25	=25
{2dd	als
4ee	ob
=26	=26
(2dd	et-
4cc)	-was
=27	=27
2cc	.
4cc	ʒu
=28	=28
(2.ee	Grund
=29	=29
2dd)	.
4dd	wollt'
=30	=30
2.dd	ge-
=31	=31
2b	-hen.
4r}	.
==	==
!!!AGN: Ballade, Unfall, Tod
!!!ONB: ESAC (Essen Associative Code) Database: BALLADE
!!!AMT: simple triple
!!!AIN: vox
!!!EED: Helmut Schaffrath
!!!EEV: 1.0
!!!source: Deutsche Volkslieder mit ihren Melodien Balladen. Herausgegeben vom Deutschen Volksliedarchiv. Fünfter Teil. Freiburg/Breisgau 1965.
!!!page: 193
!!!ENC: Anna Maria Matuszewska
!!!EEV: 2025/03/04
*-	*-
